X:1
T:Every One That Thirsteth
T:Every One That Thirsteth
T:William Thomas Giffe
T:William Thomas Giffe, 1888
T:Public Domain Courtesy of the Cyber Hymnal™
T:Public Domain Courtesy of the Cyber Hymnal™
C:William Thomas Giffe
Z:Public Domain
Z:Courtesy of the Cyber Hymnal™
%%score ( 1 2 ) ( 3 4 )
L:1/8
Q:1/4=95
M:4/4
K:G
V:1 treble 
V:2 treble 
V:3 bass 
V:4 bass 
V:1
 (d>c) | [DB]>[DB] [DB]>[DB] [DB]>[CA] [B,G]>[DB] | (D4 G2) [DG]>[DF] | %3
w: 1.~Ho! *|ev- ery one that thirst- eth, come and|drink, * For the|
w: 2.~Ho! *|ev- ery one that thirst- eth, come and|drink; * There is|
w: 3.~Ho! *|ev- ery one that thirst- eth, come and|drink; * Drink the|
 [CE]>[DF] [EG]>[EA] [DB]>[DB] [DA]>[EG] | [FA]6 [Fd]>[Fc] | %5
w: crys- tal tide is flow- ing free to-|day; There is|
w: heal- ing in the stream for all who|come; Won- der-|
w: sac- red tide be- fore you turn a-|way; From the|
 [GB]>[GB] [DB]>[DB] [DB]>[CA] [B,G]>[DB] | ([CE]4 [EG]2) [EG]>[EA] | %7
w: par- don in the fount- ain of His|love; * Drink ye|
w: ful its power to cleanse from ev- ery|ill; * Je- sus|
w: fount- ain of the Sav- ior’s lov- ing|heart, * It is|
 [DB]>[DB] [DA]>[DG] [DA]2 [DF]2 | [DG]6 ||"^Refrain" B>c | d4- d>B A>B x2 | c6 [Fc]>[Fc] | %12
w: free- ly of it while you|may.|Come and|drink * the pre- cious|tide, Flow- ing|
w: speaks the word, and it is|done.||||
w: of- fered free to all to-|day.||||
 [GB]>[GB] [GB]>[GB] (de) (dB) | A6 d>c | (z2 A>)G x6 | (z2 [DB]>)[Dc] x6 | %16
w: free- ly from the Mas- * ter’s *|love; Come and|* drink,|* come|
w: ||||
w: ||||
 [Gd]>[GB] [FA]>[Fc] [DB]2 [DA]2 | [DG]6 |] %18
w: and drink; Drink the life that|com-|
w: ||
w: ||
V:2
 G2 | x8 | D6 x2 | x8 | x8 | x8 | x8 | x8 | x6 || x2 | (G2 G2 D2) G2 x2 | (F2 F2 F2) x2 | %12
 x4 G2 G2 | (F2 F>F F2) x2 | (B6 D>D D2) | (c6 E>E E2) | x8 | x6 |] %18
V:3
 (B,>A,) | G,>G, G,>G, G,>G, G,>G, | [G,B,]6 [B,,G,]>[B,,G,] | %3
w: ~ *|~ ~ ~ ~ ~ ~ ~ ~|~ ~ ~|
 [C,G,]>[C,G,] [C,G,]>[C,G,] G,>G, [F,A,]>[E,A,] | [D,A,]6 [D,A,]>[D,A,] | %5
w: ~ ~ ~ ~ ~ ~ ~ ~|~ ~ ~|
 G,>G, G,>G, G,>G, G,>G, | (G,4 C2) [C,C]>[C,C] | [D,G,]>[D,G,] [D,C]>[D,B,] [D,C]2 [D,C]2 | %8
w: ~ ~ ~ ~ ~ ~ ~ ~|~ * ~ ~|~ ~ ~ ~ ~ ~|
 [G,,B,]6 || G,>A, | B,4- [G,,G,]2 B,>G,C>B, | A,6 [D,A,]>[D,A,] | G,>G, G,>G, (B,C) (B,G,) | %13
w: ~|~ ~|Come drink the * pre- *|cious tide, ~|~ ~ ~ ~ ~ * ~ *|
 [D,C]2 [D,C]>[D,B,] [D,A,]2 z2 | z2 G,>G, G,2 z2 x2 | z2 [C,G,]>[C,G,] [C,G,]2 G,>[G,A,] x2 | %16
w: ~ ~ Come and|drink, Come and|drink, Come and drink, *|
 [G,B,]>[G,D] [D,C]>[D,A,] [D,G,]2 [D,C]2 | [G,,B,]6 |] %18
w: ||
V:4
 G,2 | G,>G, G,>G, G,>G, G,>G, | x8 | x4 G,>G, x2 | x8 | G,>G, G,>G, G,>G, G,>G, | C,6 x2 | x8 | %8
 x6 || x2 | [G,,G,]2 [G,,G,]2 [G,,G,]2 x4 | D,2 D,2 D,2 x2 | G,>G, G,>G, G,2 G,2 | x8 | %14
 x2 G,>G, G,2 x4 | x6 G,3/2 x5/2 | x8 | x6 |] %18

